Sweet-Rainbow/icons/media-flash.svg

<?xml version="1.0" encoding="UTF-8" standalone="no"?>
<!-- Generator: Gravit.io -->

<svg
   xmlns:dc="http://purl.org/dc/elements/1.1/"
   xmlns:cc="http://creativecommons.org/ns#"
   xmlns:rdf="http://www.w3.org/1999/02/22-rdf-syntax-ns#"
   xmlns:svg="http://www.w3.org/2000/svg"
   xmlns="http://www.w3.org/2000/svg"
   xmlns:sodipodi="http://sodipodi.sourceforge.net/DTD/sodipodi-0.dtd"
   xmlns:inkscape="http://www.inkscape.org/namespaces/inkscape"
   style="isolation:isolate"
   viewBox="0 0 36 36"
   width="48"
   height="48"
   version="1.1"
   id="svg11"
   sodipodi:docname="media-flash.svg"
   inkscape:version="0.92.4 (5da689c313, 2019-01-14)">
  <metadata
     id="metadata17">
    <rdf:RDF>
      <cc:Work
         rdf:about="">
        <dc:format>image/svg+xml</dc:format>
        <dc:type
           rdf:resource="http://purl.org/dc/dcmitype/StillImage" />
        <dc:title></dc:title>
      </cc:Work>
    </rdf:RDF>
  </metadata>
  <defs
     id="defs15" />
  <sodipodi:namedview
     pagecolor="#ffffff"
     bordercolor="#666666"
     borderopacity="1"
     objecttolerance="10"
     gridtolerance="10"
     guidetolerance="10"
     inkscape:pageopacity="0"
     inkscape:pageshadow="2"
     inkscape:window-width="640"
     inkscape:window-height="480"
     id="namedview13"
     showgrid="false"
     inkscape:zoom="29.365243"
     inkscape:cx="25.325443"
     inkscape:cy="32"
     inkscape:current-layer="svg11"
     units="px" />
  <linearGradient
     id="_lgradient_10"
     x1="0.11845439"
     y1="0.12238944"
     x2="0.9683277"
     y2="0.98477173"
     gradientTransform="matrix(32,0,0,44,8,2)"
     gradientUnits="userSpaceOnUse">
    <stop
       offset="2.608695652173913%"
       stop-opacity="1"
       style="stop-color:rgb(198,255,221)"
       id="stop2" />
    <stop
       offset="51.73913043478261%"
       stop-opacity="1"
       style="stop-color:rgb(251,215,134)"
       id="stop4" />
    <stop
       offset="99.1304347826087%"
       stop-opacity="1"
       style="stop-color:rgb(247,121,125)"
       id="stop6" />
  </linearGradient>
  <g
     id="g825"
     transform="matrix(0.81818182,0,0,0.81818182,-1.6363637,-1.6363637)">
    <path
       id="path9"
       d="m 36,32 v 0 c 0,-1.104 0.896,-2 2,-2 v 0 c 1.104,0 2,0.896 2,2 v 0 9 c 0,2.76 -2.24,5 -5,5 H 13 C 10.24,46 8,43.76 8,41 v -3 0 c 0,-1.104 0.896,-2 2,-2 v 0 c 1.104,0 2,0.896 2,2 v 0 1 c 0,1.656 1.344,3 3,3 h 18 c 1.656,0 3,-1.344 3,-3 z m 2,-8 v 0 c 1.104,0 2,0.896 2,2 v 0 c 0,1.104 -0.896,2 -2,2 v 0 c -1.104,0 -2,-0.896 -2,-2 v 0 c 0,-1.104 0.896,-2 2,-2 z m -28,6 v 0 c 1.104,0 2,0.896 2,2 v 0 c 0,1.104 -0.896,2 -2,2 v 0 C 8.896,34 8,33.104 8,32 v 0 c 0,-1.104 0.896,-2 2,-2 z M 20.5,7 h 2 v 4 h -2 z m 5,0 h 2 v 4 h -2 z m -0.529,13.971 v 0 C 24.971,20.435 25.406,20 25.942,20 v 0 c 0.536,0 0.971,0.435 0.971,0.971 v 0 0.827 0 c 0,0.535 -0.435,0.971 -0.971,0.971 v 0 c -0.536,0 -0.971,-0.436 -0.971,-0.971 v 0 z M 16,12 H 32 V 8 C 32,6.896 31.104,6 30,6 H 18 c -1.104,0 -2,0.896 -2,2 z m -4,0.1 C 9.719,12.564 8,14.583 8,17 v 9 0 c 0,1.104 0.896,2 2,2 v 0 c 1.104,0 2,-0.896 2,-2 v 0 -7 c 0,-1.656 1.344,-3 3,-3 h 18 c 1.656,0 3,1.344 3,3 v 1 0 c 0,1.104 0.896,2 2,2 v 0 c 1.104,0 2,-0.896 2,-2 v 0 -3 c 0,-2.417 -1.719,-4.436 -4,-4.9 V 12 7 C 36,4.24 33.76,2 31,2 H 17 c -2.76,0 -5,2.24 -5,5 v 5 z m 12.971,13.358 v 0 c 0,-0.536 0.435,-0.971 0.971,-0.971 v 0 c 0.536,0 0.971,0.435 0.971,0.971 v 0 4.208 h 3.314 c 1.786,0 2.279,1.089 1.099,2.43 l -5.188,5.898 c -1.18,1.341 -3.096,1.341 -4.276,0 l -5.188,-5.898 c -1.18,-1.341 -0.687,-2.43 1.099,-2.43 h 3.314 v -8.695 0 C 21.087,20.435 21.522,20 22.058,20 v 0 c 0.536,0 0.971,0.435 0.971,0.971 v 0 10.637 H 19.87 c -0.357,0 -0.468,0.228 -0.247,0.509 l 3.977,5.054 c 0.221,0.281 0.579,0.281 0.8,0 l 3.977,-5.054 c 0.221,-0.281 0.11,-0.509 -0.247,-0.509 h -3.159 z"
       inkscape:connector-curvature="0"
       style="fill:url(#_lgradient_10);fill-rule:evenodd" />
  </g>
</svg>

<?xml version="1.0" encoding="UTF-8" standalone="no"?><!-- Generator: Gravit.io --><svg xmlns="http://www.w3.org/2000/svg" xmlns:xlink="http://www.w3.org/1999/xlink" style="isolation:isolate" viewBox="0 0 48 48" width="48pt" height="48pt"><linearGradient id="_lgradient_10" x1="0.11845439189189191" y1="0.12238943488943493" x2="0.968327702702703" y2="0.9847717035217036" gradientTransform="matrix(32,0,0,44,8,2)" gradientUnits="userSpaceOnUse"><stop offset="2.608695652173913%" stop-opacity="1" style="stop-color:rgb(198,255,221)"/><stop offset="51.73913043478261%" stop-opacity="1" style="stop-color:rgb(251,215,134)"/><stop offset="99.1304347826087%" stop-opacity="1" style="stop-color:rgb(247,121,125)"/></linearGradient><path d=" M 36 32 L 36 32 C 36 30.896 36.896 30 38 30 L 38 30 C 39.104 30 40 30.896 40 32 L 40 32 L 40 41 C 40 43.76 37.76 46 35 46 L 13 46 C 10.24 46 8 43.76 8 41 L 8 38 L 8 38 C 8 36.896 8.896 36 10 36 L 10 36 C 11.104 36 12 36.896 12 38 L 12 38 L 12 39 C 12 40.656 13.344 42 15 42 L 33 42 C 34.656 42 36 40.656 36 39 L 36 32 L 36 32 L 36 32 L 36 32 L 36 32 L 36 32 L 36 32 Z  M 38 24 L 38 24 C 39.104 24 40 24.896 40 26 L 40 26 C 40 27.104 39.104 28 38 28 L 38 28 C 36.896 28 36 27.104 36 26 L 36 26 C 36 24.896 36.896 24 38 24 L 38 24 L 38 24 L 38 24 L 38 24 L 38 24 Z  M 10 30 L 10 30 C 11.104 30 12 30.896 12 32 L 12 32 C 12 33.104 11.104 34 10 34 L 10 34 C 8.896 34 8 33.104 8 32 L 8 32 C 8 30.896 8.896 30 10 30 L 10 30 L 10 30 L 10 30 L 10 30 Z  M 20.5 7 L 22.5 7 L 22.5 11 L 20.5 11 L 20.5 7 L 20.5 7 L 20.5 7 L 20.5 7 Z  M 25.5 7 L 27.5 7 L 27.5 11 L 25.5 11 L 25.5 7 L 25.5 7 L 25.5 7 Z  M 24.971 20.971 L 24.971 20.971 C 24.971 20.435 25.406 20 25.942 20 L 25.942 20 C 26.478 20 26.913 20.435 26.913 20.971 L 26.913 20.971 L 26.913 21.798 L 26.913 21.798 C 26.913 22.333 26.478 22.769 25.942 22.769 L 25.942 22.769 C 25.406 22.769 24.971 22.333 24.971 21.798 L 24.971 21.798 L 24.971 20.971 L 24.971 20.971 Z  M 16 12 L 32 12 L 32 8 C 32 6.896 31.104 6 30 6 L 18 6 C 16.896 6 16 6.896 16 8 L 16 12 L 16 12 L 16 12 L 16 12 L 16 12 L 16 12 L 16 12 L 16 12 Z  M 12 12.1 C 9.719 12.564 8 14.583 8 17 L 8 26 L 8 26 C 8 27.104 8.896 28 10 28 L 10 28 C 11.104 28 12 27.104 12 26 L 12 26 L 12 19 C 12 17.344 13.344 16 15 16 L 33 16 C 34.656 16 36 17.344 36 19 L 36 20 L 36 20 C 36 21.104 36.896 22 38 22 L 38 22 C 39.104 22 40 21.104 40 20 L 40 20 L 40 17 C 40 14.583 38.281 12.564 36 12.1 L 36 12 L 36 7 C 36 4.24 33.76 2 31 2 L 17 2 C 14.24 2 12 4.24 12 7 L 12 12 L 12 12.1 L 12 12.1 L 12 12.1 L 12 12.1 L 12 12.1 L 12 12.1 L 12 12.1 L 12 12.1 Z  M 24.971 25.458 L 24.971 25.458 C 24.971 24.922 25.406 24.487 25.942 24.487 L 25.942 24.487 C 26.478 24.487 26.913 24.922 26.913 25.458 L 26.913 25.458 L 26.913 29.666 L 30.227 29.666 C 32.013 29.666 32.506 30.755 31.326 32.096 L 26.138 37.994 C 24.958 39.335 23.042 39.335 21.862 37.994 L 16.674 32.096 C 15.494 30.755 15.987 29.666 17.773 29.666 L 21.087 29.666 L 21.087 20.971 L 21.087 20.971 C 21.087 20.435 21.522 20 22.058 20 L 22.058 20 C 22.594 20 23.029 20.435 23.029 20.971 L 23.029 20.971 L 23.029 31.608 L 19.87 31.608 C 19.513 31.608 19.402 31.836 19.623 32.117 L 23.6 37.171 C 23.821 37.452 24.179 37.452 24.4 37.171 L 28.377 32.117 C 28.598 31.836 28.487 31.608 28.13 31.608 L 24.971 31.608 L 24.971 25.458 Z " fill-rule="evenodd" fill="url(#_lgradient_10)"/></svg>
